public/assets/img/vector4.svg

<svg width="120" height="120" viewBox="0 0 120 120" fill="none" xmlns="http://www.w3.org/2000/svg">
<rect x="30" y="60.0001" width="60" height="60" rx="24" fill="#FF3B30"/>
<mask id="path-2-inside-1" fill="white">
<path d="M61.5891 47.4464C61.6402 43.0284 65.3015 39.4057 69.6146 40.3642C71.9433 40.8818 74.2246 41.6151 76.4284 42.558C81.092 44.5533 85.317 47.4475 88.8621 51.0756C92.4072 54.7037 95.2029 58.9945 97.0897 63.703C97.9814 65.9281 98.6617 68.2258 99.1253 70.5658C99.9837 74.8999 96.2773 78.4764 91.8593 78.4253L69.2342 78.1635C64.8162 78.1124 61.2762 74.4894 61.3273 70.0715L61.5891 47.4464Z"/>
</mask>
<path d="M61.5891 47.4464C61.6402 43.0284 65.3015 39.4057 69.6146 40.3642C71.9433 40.8818 74.2246 41.6151 76.4284 42.558C81.092 44.5533 85.317 47.4475 88.8621 51.0756C92.4072 54.7037 95.2029 58.9945 97.0897 63.703C97.9814 65.9281 98.6617 68.2258 99.1253 70.5658C99.9837 74.8999 96.2773 78.4764 91.8593 78.4253L69.2342 78.1635C64.8162 78.1124 61.2762 74.4894 61.3273 70.0715L61.5891 47.4464Z" stroke="#252836" stroke-width="8" mask="url(#path-2-inside-1)"/>
<mask id="path-3-inside-2" fill="white">
<path d="M59.1407 47.7923C59.1148 43.3741 55.4741 39.7306 51.1557 40.6646C48.8241 41.1688 46.5386 41.8892 44.3295 42.8195C39.6546 44.7882 35.4132 47.6584 31.8475 51.2662C28.2819 54.8741 25.4617 59.1489 23.5482 63.8466C22.6439 66.0665 21.9504 68.3603 21.4736 70.6977C20.5905 75.0269 24.2765 78.6244 28.6947 78.5984L51.3209 78.4654C55.7391 78.4394 59.2997 74.8367 59.2738 70.4185L59.1407 47.7923Z"/>
</mask>
<path d="M59.1407 47.7923C59.1148 43.3741 55.4741 39.7306 51.1557 40.6646C48.8241 41.1688 46.5386 41.8892 44.3295 42.8195C39.6546 44.7882 35.4132 47.6584 31.8475 51.2662C28.2819 54.8741 25.4617 59.1489 23.5482 63.8466C22.6439 66.0665 21.9504 68.3603 21.4736 70.6977C20.5905 75.0269 24.2765 78.6244 28.6947 78.5984L51.3209 78.4654C55.7391 78.4394 59.2997 74.8367 59.2738 70.4185L59.1407 47.7923Z" stroke="#252836" stroke-width="8" mask="url(#path-3-inside-2)"/>
<mask id="path-4-inside-3" fill="white">
<path d="M58.7655 111.301C58.6854 115.718 55.0004 119.317 50.6938 118.33C48.3685 117.797 46.092 117.049 43.8945 116.092C39.244 114.066 35.0382 111.144 31.517 107.493C27.9958 103.841 25.2283 99.5324 23.3724 94.8116C22.4954 92.5808 21.8301 90.2786 21.382 87.9356C20.552 83.596 24.2818 80.0439 28.6993 80.124L51.3222 80.5343C55.7398 80.6144 59.256 84.2605 59.1758 88.678L58.7655 111.301Z"/>
</mask>
<path d="M58.7655 111.301C58.6854 115.718 55.0004 119.317 50.6938 118.33C48.3685 117.797 46.092 117.049 43.8945 116.092C39.244 114.066 35.0382 111.144 31.517 107.493C27.9958 103.841 25.2283 99.5324 23.3724 94.8116C22.4954 92.5808 21.8301 90.2786 21.382 87.9356C20.552 83.596 24.2818 80.0439 28.6993 80.124L51.3222 80.5343C55.7398 80.6144 59.256 84.2605 59.1758 88.678L58.7655 111.301Z" stroke="#252836" stroke-width="8" mask="url(#path-4-inside-3)"/>
</svg>

<svg width="120" height="120" fill="none" xmlns="http://www.w3.org/2000/svg"><rect x="30" y="60" width="60" height="60" rx="24" fill="#FF3B30"/><mask id="a" fill="#fff"><path d="M61.59 47.446c.05-4.418 3.712-8.04 8.025-7.082a38.629 38.629 0 0 1 29.51 30.202c.859 4.334-2.848 7.91-7.266 7.86l-22.625-.263a8 8 0 0 1-7.907-8.091l.262-22.626Z"/></mask><path d="M61.59 47.446c.05-4.418 3.712-8.04 8.025-7.082a38.629 38.629 0 0 1 29.51 30.202c.859 4.334-2.848 7.91-7.266 7.86l-22.625-.263a8 8 0 0 1-7.907-8.091l.262-22.626Z" stroke="#252836" stroke-width="8" mask="url(#a)"/><mask id="b" fill="#fff"><path d="M59.14 47.792c-.025-4.418-3.666-8.061-7.984-7.127a38.62 38.62 0 0 0-27.608 23.182 38.622 38.622 0 0 0-2.074 6.85c-.884 4.33 2.802 7.927 7.22 7.901l22.627-.133a8 8 0 0 0 7.953-8.047l-.133-22.626Z"/></mask><path d="M59.14 47.792c-.025-4.418-3.666-8.061-7.984-7.127a38.62 38.62 0 0 0-27.608 23.182 38.622 38.622 0 0 0-2.074 6.85c-.884 4.33 2.802 7.927 7.22 7.901l22.627-.133a8 8 0 0 0 7.953-8.047l-.133-22.626Z" stroke="#252836" stroke-width="8" mask="url(#b)"/><mask id="c" fill="#fff"><path d="M58.766 111.301c-.08 4.417-3.766 8.016-8.072 7.029a38.633 38.633 0 0 1-29.312-30.394c-.83-4.34 2.9-7.892 7.317-7.812l22.623.41a8 8 0 0 1 7.854 8.144l-.41 22.623Z"/></mask><path d="M58.766 111.301c-.08 4.417-3.766 8.016-8.072 7.029a38.633 38.633 0 0 1-29.312-30.394c-.83-4.34 2.9-7.892 7.317-7.812l22.623.41a8 8 0 0 1 7.854 8.144l-.41 22.623Z" stroke="#252836" stroke-width="8" mask="url(#c)"/></svg>
